T: John O'Shea's March
M: 4/4
L: 1/8
K: Amaj
G2 B2 D2 EG | A>^GAB d2 BA | GEDE G2 G2 | G6 AB |c3 d e2 dc | B2 G2 A2 Bc | d2 AG  F/G/A EA | D2 D>E D2 AB |c3 d e2 dc | B2 G2 A2 Bc | d2 AG  F/G/A EA | D2 D>E DcBA |G2 B2 D2 E/F/G | A>^GAB d2 BA | GEDE G2 G2 | G4- G :|d2 F2 A2 Bd | e>^def a2 fe | dBAB d2 d2 | d6 ef |g3 a b2 ag | f2 d2 e2 fg | a2 ed c/d/e Be | A2  A>B A2 ef |g3 a b2 ag | f2 d2 e2 fg | a2 ed c/d/e Be | A2  A>B Agfe |d2 F2 A2 B/c/d | e>^def a2 fe | dBAB d2 d2 | d4- d :|A2 c2 E2 FA | B>^ABc e2 cB | AFEF A2 A2 | A6 Bc |d3 e f2 ed | c2 A2 B2 cd | e2 BA G/A/B FB | E2 E>F E2 Bc |d3 e f2 ed | c2 A2 B2 cd | e2 BA G/A/B FB | E2 E>F EdcB |A2 c2 E2 F/G/A | B>^ABc e2 cB | AFEF A2 A2 | A4- A :|
</html>
